;FLAVOR:Marlin
;TIME:8543
;Filament used: 10.2335m
;Layer height: 0.25
;MINX:99.218
;MINY:67.78
;MINZ:0.2
;MAXX:150.826
;MAXY:142.221
;MAXZ:50.95
;Generated with Cura_SteamEngine 4.4.0
M82 ;absolute extrusion mode
G21 ; set units to millimeters
G90 ; use absolute positioning
M82 ; absolute extrusion mode
M104 S200 ; set extruder temp
M140 S60 ; set bed temp
M190 S60 ; wait for bed temp
M109 S200 ; wait for extruder temp
G28 W ; home all without mesh bed level
G80 ; mesh bed leveling
G92 E0.0 ; reset extruder distance position
G1 Y-3.0 F1000.0 ; go outside print area
G1 X60.0 E9.0 F1000.0 ; intro line
G1 X100.0 E21.5 F1000.0 ; intro line
G92 E0.0 ; reset extruder distance position
G92 E0
G92 E0
G1 F2100 E-0.8
;LAYER_COUNT:204
;LAYER:0
M107
G0 F3600 X104.198 Y78.331 Z0.2
;TYPE:SKIRT
G1 F2100 E0
G1 F1800 X104.785 Y77.588 E0.03149
G1 X104.823 Y77.542 E0.03348
G1 X105.561 Y76.639 E0.07227
G1 X105.589 Y76.604 E0.07376
G1 X105.937 Y76.189 E0.09177
G1 X106.165 Y75.942 E0.10295
G1 X107.028 Y75.089 E0.14331
G1 X107.084 Y75.035 E0.1459
G1 X107.779 Y74.377 E0.17773
G1 X107.81 Y74.348 E0.17914
G1 X108.353 Y73.846 E0.20374
G1 X108.621 Y73.621 E0.21538
G1 X108.986 Y73.344 E0.23062
G1 X109.05 Y73.296 E0.23328
G1 X110.53 Y72.224 E0.29406
G1 X110.571 Y72.195 E0.29573
G1 X111.029 Y71.873 E0.31435
G1 X111.308 Y71.696 E0.32534
G1 X112.308 Y71.122 E0.36369
G1 X112.374 Y71.085 E0.36621
G1 X113.13 Y70.672 E0.39486
G1 X113.171 Y70.65 E0.39641
G1 X113.758 Y70.339 E0.4185
G1 X114.05 Y70.2 E0.42926
G1 X114.97 Y69.814 E0.46244
G1 X115.029 Y69.79 E0.46456
G1 X116.022 Y69.394 E0.50011
G1 X116.066 Y69.377 E0.50168
G1 X116.751 Y69.114 E0.52609
G1 X117.042 Y69.017 E0.53629
G1 X117.26 Y68.954 E0.54384
G1 X117.341 Y68.931 E0.54664
G1 X117.599 Y68.863 E0.55551
G1 X117.635 Y68.854 E0.55675
G1 X119.123 Y68.478 E0.60779
G1 X119.166 Y68.467 E0.60927
G1 X119.846 Y68.304 E0.63253
G1 X120.167 Y68.242 E0.6434
G1 X121.075 Y68.11 E0.67392
G1 X121.131 Y68.103 E0.6758
G1 X122.709 Y67.899 E0.72872
G1 X122.76 Y67.892 E0.73043
G1 X123.457 Y67.812 E0.75376
G1 X123.764 Y67.79 E0.764
G1 X124.076 Y67.781 E0.77438
G1 X124.18 Y67.78 E0.77784
G1 X125.545 Y67.78 E0.82324
G1 X126.216 Y67.789 E0.84556
G1 X126.538 Y67.808 E0.85629
G1 X126.857 Y67.841 E0.86696
G1 X126.948 Y67.852 E0.87
G1 X129.061 Y68.125 E0.94087
G1 X129.111 Y68.131 E0.94254
G1 X129.725 Y68.219 E0.96317
G1 X130.04 Y68.279 E0.97384
G1 X130.986 Y68.502 E1.00616
G1 X131.052 Y68.518 E1.00842
G1 X132.147 Y68.798 E1.04602
G1 X132.194 Y68.811 E1.04764
G1 X132.838 Y68.985 E1.06982
G1 X133.116 Y69.072 E1.07951
G1 X133.425 Y69.183 E1.09043
G1 X133.535 Y69.224 E1.09434
G1 X135.376 Y69.954 E1.16021
G1 X135.425 Y69.974 E1.16197
G1 X135.952 Y70.192 E1.18094
G1 X136.242 Y70.328 E1.19159
G1 X137.171 Y70.813 E1.22645
G1 X137.231 Y70.845 E1.22871
G1 X137.87 Y71.194 E1.25292
G1 X137.919 Y71.221 E1.25479
G1 X138.54 Y71.573 E1.27853
G1 X138.787 Y71.727 E1.28821
G1 X139.03 Y71.892 E1.29798
G1 X139.131 Y71.963 E1.30208
G1 X140.737 Y73.136 E1.36823
G1 X140.782 Y73.169 E1.37009
G1 X141.262 Y73.531 E1.39008
G1 X141.508 Y73.734 E1.40069
G1 X142.277 Y74.429 E1.43517
G1 X142.329 Y74.477 E1.43752
G1 X143.082 Y75.185 E1.4719
G1 X143.119 Y75.221 E1.47361
G1 X143.548 Y75.636 E1.49347
G1 X143.769 Y75.869 E1.50415
G1 X144.463 Y76.672 E1.53945
G1 X144.509 Y76.727 E1.54183
G1 X145.158 Y77.509 E1.57563
G1 X145.195 Y77.554 E1.57757
G1 X145.619 Y78.082 E1.60009
G1 X145.802 Y78.331 E1.61037
G1 X146.341 Y79.135 E1.64256
G1 X146.378 Y79.191 E1.6448
G1 X147.042 Y80.222 E1.68558
G1 X147.069 Y80.266 E1.6873
G1 X147.389 Y80.779 E1.70741
G1 X147.551 Y81.065 E1.71834
G1 X148.071 Y82.098 E1.75681
G1 X148.103 Y82.163 E1.75922
G1 X148.512 Y83.018 E1.79074
G1 X148.537 Y83.072 E1.79272
G1 X148.789 Y83.622 E1.81284
G1 X148.905 Y83.908 E1.82311
G1 X149.237 Y84.835 E1.85586
G1 X149.262 Y84.906 E1.85836
G1 X149.672 Y86.131 E1.90133
G1 X149.687 Y86.177 E1.90294
G1 X149.879 Y86.777 E1.92389
G1 X149.949 Y87.028 E1.93256
G1 X150.014 Y87.297 E1.94176
G1 X150.049 Y87.455 E1.94714
G1 X150.428 Y89.402 E2.01312
G1 X150.437 Y89.452 E2.01481
G1 X150.559 Y90.129 E2.03769
G1 X150.599 Y90.421 E2.04749
G1 X150.66 Y91.052 E2.06857
G1 X150.665 Y91.11 E2.07051
G1 X150.77 Y92.418 E2.11415
G1 X150.774 Y92.467 E2.11579
G1 X150.818 Y93.129 E2.13786
G1 X150.826 Y93.41 E2.14721
G1 X150.823 Y93.667 E2.15575
G1 X150.819 Y93.784 E2.15965
G1 X150.807 Y94.055 E2.16867
G1 X150.803 Y94.141 E2.17153
G1 X150.68 Y95.943 E2.23161
G1 X150.669 Y96.069 E2.23581
G1 X150.633 Y96.416 E2.24742
G1 X150.606 Y96.617 E2.25416
G1 X150.555 Y96.934 E2.26484
G1 X150.537 Y97.037 E2.26832
G1 X150.175 Y98.932 E2.33249
G1 X150.165 Y98.982 E2.33418
G1 X150.018 Y99.697 E2.35846
G1 X149.971 Y99.899 E2.36536
G1 X149.734 Y100.788 E2.39596
G1 X149.074 Y103.421 E2.48624
G1 X148.47 Y106.145 E2.57904
G1 X147.978 Y108.721 E2.66627
G1 X147.528 Y111.495 E2.75974
G1 X147.172 Y114.166 E2.84936
G1 X146.89 Y116.848 E2.93906
G1 X146.68 Y119.606 E3.03106
G1 X146.55 Y122.334 E3.12189
G1 X146.495 Y125.566 E3.22941
G1 X146.495 Y137.82 E3.63698
G1 X146.485 Y138.545 E3.66109
G1 X146.437 Y139.079 E3.67892
G1 X146.311 Y139.6 E3.69675
G1 X146.109 Y140.097 E3.7146
G1 X145.835 Y140.558 E3.73243
G1 X145.475 Y140.996 E3.75129
G1 X145.363 Y141.112 E3.75665
G1 X144.963 Y141.469 E3.77449
G1 X144.514 Y141.762 E3.79232
G1 X144.026 Y141.986 E3.81018
G1 X143.511 Y142.135 E3.82801
G1 X142.838 Y142.21 E3.85053
G1 X142.281 Y142.22 E3.86906
G1 X142.216 Y142.221 E3.87122
G1 X107.878 Y142.221 E5.01331
G1 X107.177 Y142.211 E5.03663
G1 X106.642 Y142.163 E5.05449
G1 X106.121 Y142.037 E5.07232
G1 X105.625 Y141.834 E5.09014
G1 X105.164 Y141.56 E5.10798
G1 X104.694 Y141.168 E5.12834
G1 X104.581 Y141.056 E5.13363
G1 X104.229 Y140.651 E5.15148
G1 X103.941 Y140.198 E5.16933
G1 X103.724 Y139.708 E5.18715
G1 X103.582 Y139.191 E5.20499
G1 X103.515 Y138.559 E5.22612
G1 X103.505 Y137.959 E5.24608
G1 X103.505 Y125.647 E5.65558
G1 X103.466 Y122.866 E5.74809
G1 X103.35 Y120.137 E5.83894
G1 X103.156 Y117.408 E5.92993
G1 X102.891 Y114.731 E6.01941
G1 X102.541 Y111.993 E6.11121
G1 X102.12 Y109.315 E6.20138
G1 X101.622 Y106.636 E6.29201
G1 X101.053 Y103.995 E6.38186
G1 X100.328 Y101.053 E6.48264
G1 X100.063 Y100.048 E6.51721
G1 X100.021 Y99.87 E6.52329
G1 X99.874 Y99.17 E6.54708
G1 X99.861 Y99.105 E6.54929
G1 X99.535 Y97.397 E6.60712
G1 X99.525 Y97.342 E6.60898
G1 X99.419 Y96.736 E6.62944
G1 X99.379 Y96.429 E6.63974
G1 X99.297 Y95.49 E6.67109
G1 X99.291 Y95.423 E6.67333
G1 X99.26 Y94.97 E6.68843
G1 X99.257 Y94.922 E6.69003
G1 X99.221 Y94.269 E6.71178
G1 X99.218 Y93.945 E6.72256
G1 X99.252 Y92.976 E6.75481
G1 X99.255 Y92.909 E6.75704
G1 X99.347 Y91.191 E6.81426
G1 X99.35 Y91.145 E6.81579
G1 X99.398 Y90.425 E6.83979
G1 X99.448 Y90.02 E6.85337
G1 X99.575 Y89.322 E6.87696
G1 X99.585 Y89.271 E6.87869
G1 X99.812 Y88.118 E6.91778
G1 X99.822 Y88.068 E6.91947
G1 X99.943 Y87.496 E6.93892
G1 X100.024 Y87.184 E6.94964
G1 X100.339 Y86.158 E6.98534
G1 X100.359 Y86.093 E6.9876
G1 X100.736 Y84.944 E7.02782
G1 X100.751 Y84.901 E7.02933
G1 X100.986 Y84.214 E7.05348
G1 X101.103 Y83.916 E7.06413
G1 X101.434 Y83.172 E7.09122
G1 X101.455 Y83.125 E7.09293
G1 X101.956 Y82.041 E7.13265
G1 X101.978 Y81.995 E7.13434
G1 X102.267 Y81.392 E7.15658
G1 X102.416 Y81.113 E7.1671
G1 X102.554 Y80.88 E7.17611
G1 X102.609 Y80.79 E7.17962
G1 X103.623 Y79.188 E7.24268
G1 X103.648 Y79.149 E7.24422
G1 X104.006 Y78.599 E7.26604
G1 X104.198 Y78.331 E7.27701
G0 F3600 X104.512 Y78.579
G1 F1800 X105.099 Y77.836 E7.3085
G1 X105.132 Y77.795 E7.31025
G1 X105.87 Y76.892 E7.34904
G1 X105.896 Y76.861 E7.35039
G1 X106.244 Y76.446 E7.3684
G1 X106.446 Y76.226 E7.37834
G1 X107.309 Y75.373 E7.41869
G1 X107.359 Y75.325 E7.421
G1 X108.054 Y74.667 E7.45283
G1 X108.082 Y74.641 E7.4541
G1 X108.625 Y74.139 E7.4787
G1 X108.863 Y73.94 E7.48902
G1 X109.228 Y73.663 E7.50426
G1 X109.285 Y73.62 E7.50663
G1 X110.765 Y72.548 E7.56741
G1 X110.802 Y72.522 E7.56892
G1 X111.26 Y72.2 E7.58754
G1 X111.507 Y72.043 E7.59727
G1 X112.507 Y71.469 E7.63562
G1 X112.566 Y71.436 E7.63787
G1 X113.322 Y71.023 E7.66652
G1 X113.358 Y71.003 E7.66789
G1 X113.945 Y70.692 E7.68999
G1 X114.205 Y70.569 E7.69955
G1 X115.125 Y70.183 E7.73274
G1 X115.178 Y70.162 E7.73463
G1 X116.171 Y69.766 E7.77019
G1 X116.209 Y69.751 E7.77155
G1 X116.894 Y69.488 E7.79595
G1 X117.153 Y69.401 E7.80504
G1 X117.371 Y69.338 E7.81259
G1 X117.443 Y69.318 E7.81507
G1 X117.701 Y69.25 E7.82395
G1 X117.733 Y69.242 E7.82504
G1 X119.221 Y68.866 E7.87609
G1 X119.259 Y68.856 E7.8774
G1 X119.939 Y68.693 E7.90066
G1 X120.225 Y68.638 E7.91034
G1 X121.133 Y68.506 E7.94086
G1 X121.183 Y68.499 E7.94254
G1 X122.761 Y68.295 E7.99546
G1 X122.806 Y68.29 E7.99697
G1 X123.503 Y68.21 E8.0203
G1 X123.776 Y68.19 E8.02941
G1 X124.088 Y68.181 E8.03979
G1 X124.18 Y68.18 E8.04285
G1 X125.54 Y68.18 E8.08808
G1 X126.211 Y68.189 E8.1104
G1 X126.497 Y68.206 E8.11993
G1 X126.816 Y68.239 E8.1306
G1 X126.897 Y68.248 E8.13331
G1 X129.01 Y68.521 E8.20417
G1 X129.054 Y68.527 E8.20565
G1 X129.668 Y68.615 E8.22628
G1 X129.948 Y68.668 E8.23576
G1 X130.894 Y68.891 E8.26808
G1 X130.953 Y68.906 E8.27011
G1 X132.048 Y69.186 E8.3077
G1 X132.09 Y69.197 E8.30914
G1 X132.734 Y69.371 E8.33133
G1 X132.981 Y69.448 E8.33994
G1 X133.29 Y69.559 E8.35086
G1 X133.388 Y69.596 E8.35434
G1 X135.229 Y70.326 E8.42021
G1 X135.272 Y70.344 E8.42176
G1 X135.799 Y70.562 E8.44073
G1 X136.057 Y70.682 E8.45019
G1 X136.986 Y71.167 E8.48505
G1 X137.039 Y71.196 E8.48706
G1 X137.678 Y71.545 E8.51127
G1 X137.722 Y71.569 E8.51294
G1 X138.343 Y71.921 E8.53668
G1 X138.563 Y72.058 E8.5453
G1 X138.806 Y72.223 E8.55507
G1 X138.895 Y72.286 E8.5587
G1 X140.501 Y73.459 E8.62485
G1 X140.541 Y73.488 E8.62649
G1 X141.021 Y73.85 E8.64649
G1 X141.24 Y74.031 E8.65594
G1 X142.009 Y74.726 E8.69041
G1 X142.055 Y74.769 E8.6925
G1 X142.808 Y75.477 E8.72688
G1 X142.841 Y75.508 E8.72839
G1 X143.27 Y75.923 E8.74824
G1 X143.466 Y76.131 E8.75775
G1 X144.16 Y76.934 E8.79305
G1 X144.201 Y76.982 E8.79514
G1 X144.85 Y77.764 E8.82894
G1 X144.883 Y77.804 E8.83067
G1 X145.307 Y78.332 E8.85319
G1 X145.47 Y78.554 E8.86235
G1 X146.009 Y79.358 E8.89455
G1 X146.041 Y79.407 E8.89649
G1 X146.705 Y80.438 E8.93728
G1 X146.73 Y80.477 E8.93882
G1 X147.05 Y80.99 E8.95893
G1 X147.193 Y81.245 E8.96866
G1 X147.713 Y82.278 E9.00712
G1 X147.742 Y82.336 E9.00928
G1 X148.151 Y83.191 E9.0408
G1 X148.173 Y83.239 E9.04256
G1 X148.425 Y83.789 E9.06268
G1 X148.529 Y84.043 E9.07181
G1 X148.861 Y84.97 E9.10456
G1 X148.883 Y85.033 E9.10678
G1 X149.293 Y86.258 E9.14974
G1 X149.306 Y86.299 E9.15117
G1 X149.498 Y86.899 E9.17213
G1 X149.56 Y87.122 E9.17982
G1 X149.625 Y87.391 E9.18903
G1 X149.656 Y87.532 E9.19383
G1 X150.035 Y89.479 E9.2598
G1 X150.043 Y89.522 E9.26126
G1 X150.165 Y90.199 E9.28414
G1 X150.201 Y90.459 E9.29287
G1 X150.262 Y91.09 E9.31395
G1 X150.267 Y91.142 E9.31569
G1 X150.372 Y92.45 E9.35934
G1 X150.375 Y92.494 E9.3608
G1 X150.419 Y93.156 E9.38287
G1 X150.426 Y93.405 E9.39115
G1 X150.423 Y93.662 E9.3997
G1 X150.42 Y93.767 E9.4032
G1 X150.408 Y94.038 E9.41222
G1 X150.404 Y94.114 E9.41475
G1 X150.281 Y95.916 E9.47482
G1 X150.271 Y96.028 E9.47856
G1 X150.235 Y96.375 E9.49017
G1 X150.211 Y96.553 E9.49614
G1 X150.16 Y96.87 E9.50682
G1 X150.144 Y96.962 E9.50993
G1 X149.782 Y98.857 E9.57409
G1 X149.773 Y98.901 E9.57559
G1 X149.626 Y99.616 E9.59987
G1 X149.584 Y99.796 E9.60601
G1 X149.359 Y100.64 E9.63507
G1 X148.679 Y103.351 E9.72803
G1 X148.081 Y106.048 E9.81991
G1 X147.58 Y108.677 E9.90892
G1 X147.136 Y111.409 E10.00098
G1 X146.777 Y114.104 E10.09141
G1 X146.489 Y116.85 E10.18324
G1 X146.28 Y119.59 E10.27464
G1 X146.152 Y122.276 E10.36408
G1 X146.095 Y125.62 E10.47532
G1 X146.095 Y137.814 E10.88089
G1 X146.085 Y138.539 E10.90501
G1 X146.038 Y139.043 E10.92184
G1 X145.912 Y139.532 E10.93864
G1 X145.711 Y139.996 E10.95546
G1 X145.439 Y140.422 E10.97227
G1 X145.187 Y140.718 E10.9852
G1 X145.075 Y140.834 E10.99056
G1 X144.696 Y141.169 E11.00738
G1 X144.269 Y141.44 E11.0242
G1 X143.805 Y141.64 E11.04101
G1 X143.315 Y141.765 E11.05783
G1 X142.83 Y141.81 E11.07403
G1 X142.273 Y141.82 E11.09256
G1 X142.216 Y141.821 E11.09445
G1 X107.883 Y141.821 E12.23637
G1 X107.182 Y141.811 E12.25969
G1 X106.679 Y141.764 E12.27649
G1 X106.189 Y141.638 E12.29332
G1 X105.726 Y141.436 E12.31012
G1 X105.299 Y141.164 E12.32696
G1 X104.975 Y140.884 E12.3412
G1 X104.862 Y140.772 E12.3465
G1 X104.532 Y140.389 E12.36331
G1 X104.267 Y139.958 E12.38014
G1 X104.073 Y139.492 E12.39693
G1 X103.954 Y139 E12.41376
G1 X103.915 Y138.552 E12.42872
G1 X103.905 Y137.952 E12.44868
G1 X103.905 Y125.641 E12.85815
G1 X103.865 Y122.843 E12.95122
G1 X103.75 Y120.126 E13.04167
G1 X103.555 Y117.38 E13.13323
G1 X103.287 Y114.674 E13.22367
G1 X102.939 Y111.952 E13.31494
G1 X102.514 Y109.251 E13.40588
G1 X102.011 Y106.543 E13.49749
G1 X101.446 Y103.92 E13.58673
G1 X100.702 Y100.901 E13.69015
G1 X100.45 Y99.946 E13.723
G1 X100.412 Y99.788 E13.72841
G1 X100.265 Y99.088 E13.7522
G1 X100.254 Y99.03 E13.75416
G1 X99.928 Y97.322 E13.81199
G1 X99.919 Y97.273 E13.81365
G1 X99.813 Y96.667 E13.83411
G1 X99.777 Y96.394 E13.84327
G1 X99.695 Y95.455 E13.87462
G1 X99.69 Y95.395 E13.87662
G1 X99.659 Y94.942 E13.89172
G1 X99.657 Y94.9 E13.89312
G1 X99.621 Y94.247 E13.91488
G1 X99.618 Y93.959 E13.92445
G1 X99.652 Y92.99 E13.9567
G1 X99.655 Y92.931 E13.95867
G1 X99.747 Y91.213 E14.01589
G1 X99.749 Y91.171 E14.01729
G1 X99.797 Y90.451 E14.04129
G1 X99.842 Y90.091 E14.05336
G1 X99.969 Y89.393 E14.07695
G1 X99.977 Y89.348 E14.07847
G1 X100.204 Y88.195 E14.11756
G1 X100.213 Y88.151 E14.11905
G1 X100.334 Y87.579 E14.1385
G1 X100.406 Y87.302 E14.14802
G1 X100.721 Y86.276 E14.18371
G1 X100.739 Y86.217 E14.18577
G1 X101.116 Y85.068 E14.22599
G1 X101.129 Y85.03 E14.22732
G1 X101.364 Y84.343 E14.25147
G1 X101.468 Y84.078 E14.26094
G1 X101.799 Y83.334 E14.28802
G1 X101.818 Y83.292 E14.28956
G1 X102.319 Y82.208 E14.32928
G1 X102.338 Y82.168 E14.33075
G1 X102.627 Y81.565 E14.35299
G1 X102.76 Y81.317 E14.36235
G1 X102.898 Y81.084 E14.37136
G1 X102.947 Y81.004 E14.37448
G1 X103.961 Y79.402 E14.43754
G1 X103.983 Y79.367 E14.43891
G1 X104.341 Y78.817 E14.46074
G1 X104.512 Y78.579 E14.47048
G0 F3600 X107.211 Y80.625
;TYPE:SUPPORT
G1 F1800 X108.928 Y78.523 E14.56076
G1 X110.926 Y76.63 E14.6523
G1 X113.306 Y74.905 E14.75007
G1 X115.582 Y73.661 E14.83633
G1 X118.103 Y72.656 E14.9266
G1 X120.774 Y71.98 E15.01824
G1 X123.876 Y71.579 E15.12227
G1 X126.153 Y71.58 E15.198
G1 X129.248 Y71.98 E15.3018
G1 X131.844 Y72.643 E15.39092
G1 X134.589 Y73.73 E15.48911
G1 X136.667 Y74.867 E15.5679
G1 X139.041 Y76.603 E15.66571
G1 X140.979 Y78.423 E15.75414
G1 X142.702 Y80.501 E15.84392
G1 X144.235 Y82.882 E15.93811
G1 X145.371 Y85.26 E16.02576
G1 X146.278 Y87.962 E16.12056
G1 X146.828 Y90.795 E16.21655
G1 X147.037 Y93.379 E16.30277
G1 X146.957 Y94.978 E16.35602
G1 X146.864 Y96.021 E16.39085
G1 X146.309 Y98.918 E16.48896
G1 X145.486 Y101.53 E16.58004
G1 X144.321 Y104.021 E16.67151
G1 X142.843 Y106.346 E16.76314
G1 X141.109 Y108.476 E16.85449
G1 X140.349 Y109.192 E16.88922
G1 X140.159 Y109.633 E16.90519
G1 X140.162 Y114.562 E17.06913
G1 X140.561 Y114.961 E17.0879
G1 X142.695 Y114.961 E17.15887
G1 X142.695 Y138.421 E17.93916
G1 X107.305 Y138.421 E19.11623
G1 X107.305 Y114.961 E19.89652
G1 X109.439 Y114.961 E19.96749
G1 X109.838 Y114.562 E19.98626
G1 X109.838 Y109.647 E20.14973
G1 X109.648 Y109.206 E20.1657
G1 X108.979 Y108.575 E20.19629
G1 X107.29 Y106.551 E20.28397
G1 X105.854 Y104.318 E20.37227
G1 X105.279 Y103.171 E20.41495
G1 X104.605 Y101.717 E20.46825
G1 X104.392 Y101.02 E20.49249
G1 X103.718 Y99.041 E20.56203
G1 X103.142 Y96.029 E20.66402
G1 X103.003 Y93.995 E20.73183
G1 X103.068 Y92.799 E20.77167
G1 X103.098 Y92.47 E20.78265
G1 X103.179 Y90.685 E20.84209
G1 X103.669 Y88.195 E20.92649
G1 X104.575 Y85.432 E21.0232
G1 X105.687 Y83.028 E21.1113
G1 X107.211 Y80.625 E21.20594
G0 F3600 X108.042 Y119.826
G1 F1800 X107.398 Y120.47 E21.23623
G1 X107.398 Y132.912 E21.65006
G1 X108.042 Y133.556 E21.68035
G1 X113.326 Y133.556 E21.8561
G1 X113.97 Y132.912 E21.88639
G1 X113.97 Y120.47 E22.30021
